X: 139
T:the Buck of the Cabrach
B:William Marshall's Scottish Airs, Melodies, Strathspeys, Reels &c (1822)
C:William Marshall
L:1/8
M:C|
O:Scotland
Z:Clark Bernst + Richard Robinson
%%Page:36 - 2
F:http://richardrobinson.tunebook.org.uk/tune/3982
%%TBL:{"version":1,"type":"tune","id":"3982"}
K:D
%%staves {1 2}
V:1
A | \
F<DAF BGAF | DAdf e2 (EG) | F<DAF BGAF | Adce d2 D :|
g | \
(fg/a/) (fd) bgag | (fg/a/) (fd) b2 (eg) | (fg/a/) (fd) bgag | fdec d2 (Dg) |
(fg/a/) (fd) bgag | (fg/a/) (fd) b2 (eg) | fdge afbg | fdec d2 D |]
V:2 middle=d clef=bass
L:1/4
z/ | dd[dg][df] | ddee | dd[dg][df] | aAdd/ :| 
z/ | \
dd[dg][df] | ddee | dd[dg][df] | aAdd | \
dd[dg][df] | ddee | defg | aAdd/ |]

